assets/icons/utility/rating.svg

<svg xmlns="http://www.w3.org/2000/svg" width="52" height="52" viewBox="0 0 52 52">
  <path fill="#fff" d="M27.4133467,3.10133815 L32.0133467,18.1013381 C32.2133467,18.7013381 32.8133467,19.0013381 33.4133467,19.0013381 L48.4133467,19.0013381 C49.9133467,19.0013381 50.5133467,21.0013381 49.3133467,21.9013381 L37.1133467,30.9013381 C36.6133467,31.3013381 36.4133467,32.0013381 36.6133467,32.6013381 L42.4133467,48.0013381 C42.8133467,49.4013381 41.3133467,50.6013381 40.1133467,49.7013381 L27.0133467,39.9013381 C26.5133467,39.5013381 25.8133467,39.5013381 25.2133467,39.9013381 L12.0133467,49.7013381 C10.8133467,50.6013381 9.21334668,49.4013381 9.71334668,48.0013381 L15.3133467,32.6013381 C15.5133467,32.0013381 15.3133467,31.3013381 14.8133467,30.9013381 L2.61334668,21.9013381 C1.41334668,21.0013381 2.11334668,19.0013381 3.51334668,19.0013381 L18.5133467,19.0013381 C19.2133467,19.0013381 19.7133467,18.8013381 19.9133467,18.1013381 L24.6133467,3.00133815 C25.0133467,1.60133815 27.0133467,1.70133815 27.4133467,3.10133815 Z M26.0133467,12.8023264 C26,14.1700393 26,33.5426636 26,34.4953918 C26.1865845,34.6476135 28.9331193,36.6890643 34.2396046,40.6197441 C34.9394191,41.144605 35.8141872,40.4447905 35.5809157,39.6283403 L35.5809157,39.6283403 L32.3085327,31.0201416 C31.9597778,30.2501831 32.3085327,29.7487793 32.7398682,29.4849854 L32.7398682,29.4849854 L39.6048489,24.6961622 C40.3046634,24.1713013 39.9547562,23.0049438 39.0799881,23.0049438 L39.0799881,23.0049438 L31.0206299,23.0049438 C30.6707226,23.0049438 29.7518921,22.8880615 29.5025635,21.9888306 L29.5025635,21.9888306 L26.8332347,13.4436151 C26.7175852,13.0388421 26.3602784,12.8204102 26.0133467,12.8023264 Z" />
</svg>

<?xml version="1.0"?><svg xmlns="http://www.w3.org/2000/svg" width="52" height="52" viewBox="0 0 52 52"><path fill="#fff" d="m27.4 3.1l4.6 15c0.2 0.6 0.8 0.9 1.4 0.9h15c1.5 0 2.1 2 0.9 2.9l-12.2 9c-0.5 0.4-0.7 1.1-0.5 1.7l5.8 15.4c0.4 1.4-1.1 2.6-2.3 1.7l-13.1-9.8c-0.5-0.4-1.2-0.4-1.8 0l-13.2 9.8c-1.2 0.9-2.8-0.3-2.3-1.7l5.6-15.4c0.2-0.6 0-1.3-0.5-1.7l-12.2-9c-1.2-0.9-0.5-2.9 0.9-2.9h15c0.7 0 1.2-0.2 1.4-0.9l4.7-15.1c0.4-1.4 2.4-1.3 2.8 0.1z m-1.4 9.7c0 1.4 0 20.7 0 21.7 0.2 0.1 2.9 2.2 8.2 6.1 0.7 0.5 1.6-0.2 1.4-1l-3.3-8.6c-0.3-0.7 0-1.2 0.4-1.5l6.9-4.8c0.7-0.5 0.4-1.7-0.5-1.7h-8.1c-0.3 0-1.2-0.1-1.5-1l-2.7-8.6c-0.1-0.4-0.4-0.6-0.8-0.6z"></path></svg>
